svg/free/wifi-signal-2.svg

<svg version="1.1" xmlns="http://www.w3.org/2000/svg" width="24" height="24" viewBox="0 0 24 24">
<title>wifi-signal-2</title>
<path d="M23.615 5.824c-3.237-2.291-7.266-3.662-11.615-3.662s-8.378 1.371-11.678 3.705l0.063-0.043-0.010 0.007v1.286l10.771 15.382h1.708l10.771-15.382v-1.286zM8.898 16.675l3.561-5.503c0.735 0.030 1.432 0.125 2.104 0.281l-0.076-0.015-4.463 6.844zM7.969 15.348l-1.794-2.562c1.275-0.787 2.781-1.333 4.394-1.535l0.055-0.006zM10.951 19.606l5.033-7.717c0.711 0.272 1.317 0.574 1.889 0.926l-0.049-0.028-5.824 8.318zM18.686 11.556c-1.902-1.189-4.212-1.894-6.686-1.894s-4.785 0.705-6.74 1.925l0.054-0.031-3.446-4.921c2.864-1.864 6.368-2.973 10.132-2.973s7.268 1.109 10.204 3.017l-0.073-0.044z"></path>
</svg>

<svg xmlns="http://www.w3.org/2000/svg" width="24" height="24" viewBox="0 0 24 24"><path d="M23.615 5.824C20.378 3.533 16.349 2.162 12 2.162S3.622 3.533.322 5.867l.063-.043-.01.007v1.286l10.771 15.382h1.708L23.625 7.117V5.831zM8.898 16.675l3.561-5.503c.735.03 1.432.125 2.104.281l-.076-.015-4.463 6.844zm-.929-1.327l-1.794-2.562a11 11 0 014.394-1.535l.055-.006zm2.982 4.258l5.033-7.717c.711.272 1.317.574 1.889.926l-.049-.028L12 21.105zm7.735-8.05C16.784 10.367 14.474 9.662 12 9.662s-4.785.705-6.74 1.925l.054-.031-3.446-4.921C4.732 4.771 8.236 3.662 12 3.662s7.268 1.109 10.204 3.017l-.073-.044z"/></svg>
